X: 5
T: Leather Away The Wattle-O
R: polka
M: 2/4
L: 1/8
K: Dmaj
(3ABc|dA FA|d2d/e/f/g/|ed cd|e/f/g fg|
af ge|d2 AF|G/A/B/c/ AG|FD D|
d/e/|ff fd|gg ge|ff fa|gf ef/g/|
af ge|d2 AF|G/A/B/c/ AG|FD D|


Tune 2286	Setting 2286

